fonts/xesada/tmp.svg

<?xml version="1.0" encoding="UTF-8" standalone="no"?>
<svg width="500" height="850" version="1.1" id="svg2" sodipodi:docname="tmp.svg" inkscape:version="1.4.2 (ebf0e940, 2025-05-08)" xmlns:inkscape="http://www.inkscape.org/namespaces/inkscape" xmlns:sodipodi="http://sodipodi.sourceforge.net/DTD/sodipodi-0.dtd" xmlns="http://www.w3.org/2000/svg" xmlns:svg="http://www.w3.org/2000/svg">
    <defs id="defs2" />
    <sodipodi:namedview id="namedview2" pagecolor="#ffffff" bordercolor="#000000" borderopacity="0.25" inkscape:showpageshadow="2" inkscape:pageopacity="0.0" inkscape:pagecheckerboard="0" inkscape:deskcolor="#d1d1d1" inkscape:zoom="0.31652174" inkscape:cx="259.06593" inkscape:cy="426.51099" inkscape:window-width="1080" inkscape:window-height="675" inkscape:window-x="0" inkscape:window-y="25" inkscape:window-maximized="0" inkscape:current-layer="svg2" />
    <path id="path1" d="M 76.794922 300 L 55.144531 312.5 L 55.144531 537.5 L 76.794922 550 L 98.445312 537.5 L 98.445312 512.5 L 98.445312 337.5 L 98.445312 312.5 L 76.794922 300 z M 423.20508 300 L 401.55469 312.5 L 401.55469 337.5 L 401.55469 512.5 L 401.55469 537.5 L 423.20508 550 L 444.85547 537.5 L 444.85547 312.5 L 423.20508 300 z " />
</svg>

<svg width="500" height="850" xmlns="http://www.w3.org/2000/svg">
    <path
        d="M250 200 55.145 312.5v225l21.65 12.5 21.65-12.5v-200L250 250l151.555 87.5v200l21.65 12.5 21.65-12.5v-225z" />
    <path
        d="m444.856 312.5-21.65-12.5-21.651 12.5v200L250 600 98.446 512.5v-200L76.795 300l-21.65 12.5v225L250 650l194.856-112.5z" />
</svg>
